X:1
T:Title
L:1/8
M:6/4
K:Eb
V:1 treble nm="Grand Piano"
V:1
 z6[Q:1/4=140] G2 E2 D2 | C6 A2 F2 E2 | D6 A2 G2 F2 | =B6 A2 G2 F2 | E6 G2 E2 D2 | C6 A2 F2 E2 | %6
 D6 A2 G2 F2 | =B6 B2 B2 A2 | G6 G2 G2 =B2 | d6 G2 G2 c2 | e6 e2 d2 c2 | =B6 B2 c2 d2 | %12
 c6 c2 A2 G2 | A6 A2 G2 F2 | G6 G2 F2 E2 | D6 G2 G2 G2 | C6 z6 |] %17

